icons/src/scalable/default/hicolor/org.gnome.Totem.svg

<?xml version="1.0" encoding="UTF-8" standalone="no"?>
<!-- Generator: flash2svg, http://dissentgraphics.com/tools/flash2svg -->

<svg
   xmlns:dc="http://purl.org/dc/elements/1.1/"
   xmlns:cc="http://creativecommons.org/ns#"
   xmlns:rdf="http://www.w3.org/1999/02/22-rdf-syntax-ns#"
   xmlns:svg="http://www.w3.org/2000/svg"
   xmlns="http://www.w3.org/2000/svg"
   xmlns:xlink="http://www.w3.org/1999/xlink"
   xmlns:sodipodi="http://sodipodi.sourceforge.net/DTD/sodipodi-0.dtd"
   xmlns:inkscape="http://www.inkscape.org/namespaces/inkscape"
   id="Mplayer"
   image-rendering="optimizeSpeed"
   version="1.1"
   style="background-color:#ffffff"
   x="0px"
   y="0px"
   width="1024px"
   height="1024px"
   viewBox="0 0 1024 1024"
   enable-background="new 0 0 1024 1024"
   sodipodi:docname="org.gnome.Totem.svg"
   inkscape:version="0.92.4 (5da689c313, 2019-01-14)">
  <metadata
     id="metadata26">
    <rdf:RDF>
      <cc:Work
         rdf:about="">
        <dc:format>image/svg+xml</dc:format>
        <dc:type
           rdf:resource="http://purl.org/dc/dcmitype/StillImage" />
        <dc:title />
      </cc:Work>
    </rdf:RDF>
  </metadata>
  <sodipodi:namedview
     pagecolor="#ffffff"
     bordercolor="#666666"
     borderopacity="1"
     objecttolerance="10"
     gridtolerance="10"
     guidetolerance="10"
     inkscape:pageopacity="0"
     inkscape:pageshadow="2"
     inkscape:window-width="1920"
     inkscape:window-height="955"
     id="namedview24"
     showgrid="true"
     inkscape:pagecheckerboard="true"
     inkscape:zoom="0.73265306"
     inkscape:cx="512"
     inkscape:cy="508.58774"
     inkscape:window-x="0"
     inkscape:window-y="25"
     inkscape:window-maximized="1"
     inkscape:current-layer="Mplayer">
    <inkscape:grid
       type="xygrid"
       id="grid841" />
  </sodipodi:namedview>
  <defs
     transform="matrix(1 0 0 1 0 0) "
     id="defs2">
    <linearGradient
       inkscape:collect="always"
       id="linearGradient902">
      <stop
         style="stop-color:#ffffff;stop-opacity:1"
         offset="0"
         id="stop898" />
      <stop
         style="stop-color:#f2f2f2;stop-opacity:1"
         offset="1"
         id="stop900" />
    </linearGradient>
    <linearGradient
       gradientTransform="matrix(0.93137254,0,0,0.93137254,35.137251,8.721509)"
       inkscape:collect="always"
       xlink:href="#linearGradient941"
       id="linearGradient943"
       x1="500"
       y1="32.362179"
       x2="500"
       y2="1052.3622"
       gradientUnits="userSpaceOnUse" />
    <linearGradient
       inkscape:collect="always"
       id="linearGradient941">
      <stop
         style="stop-color:#ffffff;stop-opacity:1"
         offset="0"
         id="stop937" />
      <stop
         style="stop-color:#ffffff;stop-opacity:1"
         offset="1"
         id="stop939" />
    </linearGradient>
    <linearGradient
       id="linearGradient4657">
      <stop
         id="stop4653"
         offset="0"
         style="stop-color:#ffffff;stop-opacity:1" />
      <stop
         id="stop4655"
         offset="1"
         style="stop-color:#ffffff;stop-opacity:0;" />
    </linearGradient>
    <filter
       inkscape:collect="always"
       style="color-interpolation-filters:sRGB"
       id="filter856"
       x="-0.036"
       width="1.072"
       y="-0.036"
       height="1.072">
      <feGaussianBlur
         inkscape:collect="always"
         stdDeviation="13.413481"
         id="feGaussianBlur858" />
    </filter>
    <linearGradient
       id="grd43"
       gradientUnits="userSpaceOnUse"
       x1="783.93671"
       y1="1346.4135"
       x2="1096.8755"
       y2="1668.5563"
       gradientTransform="matrix(2.172949,0,0,2.172949,-1403.4545,-2641.6878)">
      <stop
         offset="0"
         stop-color="#3477dd"
         id="stop269" />
      <stop
         offset="1"
         stop-color="#1accfc"
         id="stop271" />
    </linearGradient>
    <linearGradient
       id="grd44"
       gradientUnits="userSpaceOnUse"
       x1="881.5"
       y1="1225.838"
       x2="881.5"
       y2="1676.838"
       gradientTransform="matrix(2.172949,0,0,2.172949,-1403.4545,-2641.6878)"
       xlink:href="#linearGradient941">
      <stop
         offset="0"
         stop-color="#9aa3af"
         id="stop274"
         style="stop-color:#333333;stop-opacity:1" />
      <stop
         offset="1"
         stop-color="#000000"
         id="stop276"
         style="stop-color:#1a1a1a;stop-opacity:1" />
    </linearGradient>
    <radialGradient
       inkscape:collect="always"
       xlink:href="#linearGradient902"
       id="radialGradient906"
       cx="512"
       cy="512"
       fx="512"
       fy="512"
       r="489.99997"
       gradientTransform="translate(0,-2.1942858e-5)"
       gradientUnits="userSpaceOnUse" />
    <filter
       inkscape:collect="always"
       style="color-interpolation-filters:sRGB"
       id="filter912"
       x="-0.036"
       width="1.072"
       y="-0.036"
       height="1.072">
      <feGaussianBlur
         inkscape:collect="always"
         stdDeviation="14.250616"
         id="feGaussianBlur914" />
    </filter>
  </defs>
  <path
     id="Oval 7"
     class="shp57"
     d="m 512.00004,833.59645 c 177.61685,0 321.59646,-143.9796 321.59646,-321.59645 0,-177.61685 -143.97961,-321.59645 -321.59646,-321.59645 -177.61685,0 -321.59645,143.9796 -321.59645,321.59645 0,177.61685 143.9796,321.59645 321.59645,321.59645 z"
     style="fill:url(#grd43);stroke-width:2.17294908"
     inkscape:connector-curvature="0" />
  <path
     id="path867"
     class="shp58"
     d="M 22.000044,512 C 22.000044,241.38093 241.38098,22.000002 512.00004,22.000002 782.61911,22.000002 1002,241.38093 1002,512 c 0,100.45543 -30.22568,193.84878 -82.09397,271.5969 l 68.68692,68.68692 c 2.56408,2.56407 4.62838,7.54013 4.62838,11.14722 l 0.15211,118.9255 c 0.0217,8.40931 -6.77961,15.23237 -15.18892,15.27583 l -107.5827,0.54324 c -3.6071,0 -8.58315,-2.04257 -11.1255,-4.58492 L 784.90071,919.01508 C 706.91357,971.42661 613.02044,1002 512.00004,1002 241.38098,1002 22.000044,782.61907 22.000044,512 Z M 512.00004,828.16408 c 52.75921,0 102.51974,-12.92905 146.2612,-35.78847 L 442.40049,576.51486 c -37.37473,-37.37473 -37.37473,-97.82617 0,-135.20089 37.39645,-37.39645 97.82616,-37.39645 135.22261,0 L 793.11446,656.80532 C 815.51756,613.43326 828.16412,564.19424 828.16412,512 c 0,-174.61818 -141.54589,-316.16408 -316.16408,-316.16408 -174.61818,0 -316.16408,141.5459 -316.16408,316.16408 0,174.61818 141.5459,316.16408 316.16408,316.16408 z"
     style="fill:url(#radialGradient906);fill-rule:evenodd;stroke-width:2.17294908;fill-opacity:1"
     inkscape:connector-curvature="0" />
  <circle
     r="447.11603"
     cy="512"
     cx="512"
     id="circle965"
     style="display:inline;opacity:0;fill:none;fill-opacity:1;fill-rule:nonzero;stroke:url(#linearGradient943);stroke-width:55.76791763;stroke-linecap:round;stroke-linejoin:miter;stroke-miterlimit:0;stroke-dasharray:none;stroke-opacity:1;paint-order:stroke fill markers;filter:url(#filter856)" />
  <path
     inkscape:connector-curvature="0"
     style="fill:none;fill-rule:evenodd;stroke:#2faff1;stroke-width:9.958951;stroke-miterlimit:4;stroke-dasharray:none;stroke-opacity:1;paint-order:normal;opacity:0.36;filter:url(#filter912)"
     d="m 36.979473,512.00001 c 0,-262.34616 212.674387,-475.020543 475.020547,-475.020543 262.34616,0 475.02051,212.674383 475.02051,475.020543 0,97.38447 -29.30167,187.92276 -79.58434,263.2941 l 66.58715,66.58714 c 2.48569,2.48568 4.48688,7.30962 4.48688,10.80644 l 0.14747,115.28991 c 0.021,8.15224 -6.57237,14.76671 -14.72459,14.80884 l -104.29387,0.52664 c -3.49683,0 -8.32076,-1.98013 -10.78539,-4.44476 L 776.55803,906.57251 C 700.95498,957.3818 609.9322,987.02053 512.00002,987.02053 249.65387,987.02053 36.979473,774.34617 36.979473,512.00001 Z M 512.00002,818.49885 c 51.14635,0 99.38567,-12.5338 141.78994,-34.6944 L 444.52814,574.54263 c -36.23217,-36.23217 -36.23217,-94.83559 0,-131.06776 36.25323,-36.25323 94.83559,-36.25323 131.08881,0 l 208.90373,208.90371 c 21.71823,-42.04616 33.97819,-89.77993 33.97819,-140.37857 0,-169.28005 -137.2188,-306.49885 -306.49886,-306.49885 -169.28005,0 -306.49884,137.2188 -306.49884,306.49885 0,169.28005 137.21879,306.49884 306.49885,306.49884 z"
     class="shp58"
     id="path870" />
</svg>

<svg enable-background="new 0 0 1024 1024" image-rendering="optimizeSpeed" style="background-color:#ffffff" version="1.1" viewBox="0 0 1024 1024" xmlns="http://www.w3.org/2000/svg" xmlns:xlink="http://www.w3.org/1999/xlink">
 <defs>
  <filter id="d" x="-.036" y="-.036" width="1.072" height="1.072" color-interpolation-filters="sRGB">
   <feGaussianBlur stdDeviation="13.413481"/>
  </filter>
  <linearGradient id="b" x1="783.94" x2="1096.9" y1="1346.4" y2="1668.6" gradientTransform="matrix(2.1729 0 0 2.1729 -1403.5 -2641.7)" gradientUnits="userSpaceOnUse">
   <stop stop-color="#3477dd" offset="0"/>
   <stop stop-color="#1accfc" offset="1"/>
  </linearGradient>
  <radialGradient id="a" cx="512" cy="512" r="490" gradientTransform="translate(0 -2.1943e-5)" gradientUnits="userSpaceOnUse">
   <stop stop-color="#fff" offset="0"/>
   <stop stop-color="#f2f2f2" offset="1"/>
  </radialGradient>
  <filter id="c" x="-.036" y="-.036" width="1.072" height="1.072" color-interpolation-filters="sRGB">
   <feGaussianBlur stdDeviation="14.250616"/>
  </filter>
 </defs>
 <path class="shp57" d="m512 833.6c177.62 0 321.6-143.98 321.6-321.6s-143.98-321.6-321.6-321.6-321.6 143.98-321.6 321.6 143.98 321.6 321.6 321.6z" fill="url(#b)" stroke-width="2.1729"/>
 <path class="shp58" d="m22 512c0-270.62 219.38-490 490-490 270.62 0 490 219.38 490 490 0 100.46-30.226 193.85-82.094 271.6l68.687 68.687c2.5641 2.5641 4.6284 7.5401 4.6284 11.147l0.15211 118.93c0.0217 8.4093-6.7796 15.232-15.189 15.276l-107.58 0.54324c-3.6071 0-8.5832-2.0426-11.126-4.5849l-74.576-74.576c-77.987 52.412-171.88 82.985-272.9 82.985-270.62 0-490-219.38-490-490zm490 316.16c52.759 0 102.52-12.929 146.26-35.788l-215.86-215.86c-37.375-37.375-37.375-97.826 0-135.2 37.396-37.396 97.826-37.396 135.22 0l215.49 215.49c22.403-43.372 35.05-92.611 35.05-144.81 0-174.62-141.55-316.16-316.16-316.16-174.62 0-316.16 141.55-316.16 316.16s141.55 316.16 316.16 316.16z" fill="url(#a)" fill-rule="evenodd" stroke-width="2.1729"/>
 <circle cx="512" cy="512" r="447.12" filter="url(#d)" opacity="0" stroke-width="55.768" style="paint-order:stroke fill markers"/>
 <path class="shp58" d="m36.979 512c0-262.35 212.67-475.02 475.02-475.02s475.02 212.67 475.02 475.02c0 97.384-29.302 187.92-79.584 263.29l66.587 66.587c2.4857 2.4857 4.4869 7.3096 4.4869 10.806l0.14747 115.29c0.021 8.1522-6.5724 14.767-14.725 14.809l-104.29 0.52664c-3.4968 0-8.3208-1.9801-10.785-4.4448l-72.296-72.296c-75.603 50.809-166.63 80.448-264.56 80.448-262.35 0-475.02-212.67-475.02-475.02zm475.02 306.5c51.146 0 99.386-12.534 141.79-34.694l-209.26-209.26c-36.232-36.232-36.232-94.836 0-131.07 36.253-36.253 94.836-36.253 131.09 0l208.9 208.9c21.718-42.046 33.978-89.78 33.978-140.38 0-169.28-137.22-306.5-306.5-306.5-169.28 0-306.5 137.22-306.5 306.5s137.22 306.5 306.5 306.5z" fill="none" filter="url(#c)" opacity=".36" stroke="#2faff1" stroke-width="9.959" style="paint-order:normal"/>
</svg>
